X: 41901
T: Wade Hampton's
R: hornpipe
M: 4/4
K: Dmajor
(3def|:g2 f>e d>=cB>A|G>FG>A B>G D2|
D>GF>G D>GF>G|B>d=c>B A2 (3def|
g2 f>e d>=cB>A|G>FG>A B>G D2|
D>GF>G B>gf>e|(3ded (3=cBA G2:|
(3dcd|:B>DG>B d>gf>g|e>=cG>c e>gf>e|
d>^cd>e d>=cc>B|B>AA>B A>dc>d|
B>DG>B d>gf>g|e>=cG>c e>gf>e|
d>gf>e (3ded (3=cBA|B2 G2 G2:|

